X: 1
P: Miss Maule's Strathspey
C: Robert Mackintosh
C: Robert Petrie Colln. Vol II, from Matt Petrie
C: arr. T. Traub 8-25-2004
M: 4/4
L: 1/8
K: A
|: E|"A"c2 A>E "D"F<AE<C|c2 A>E "Bm"FB"E"Bd|"A"c>BA>E F<AE<C|"D"D>F "E"E<G "A"A<A A :|
e|"A"c<ea>e "D"f>a e<d|c<ea>c "E"de "D"f>a e<c|"D"d<f"E"e>d "A"c<AA>e|
"A"c<ea>e "D"f>a e<d|c<ea>c "E"dd "A"cA A |]
